X: 35515
T: Ruidhle Mo Nighean Donn
R: reel
M: 4/4
K: Amixolydian
|:a2fa edc2|cecB ABce|1 a2fa edc2|cBce f2f2:|
[2 eAAA ecBc|cBce f2f2|:eAAA ecBc|cecB ABce|
[1 eAAA ecBc|cBce f2f2:|2 a2fa edc2|cBce f2f2||

